src/lib/packages/icons/src/assets/line/coupon.svg

<svg xmlns="http://www.w3.org/2000/svg" width="24" height="24" fill="none"><path fill="currentColor" d="M21 10.75h.75V7c0-2.418-1.332-3.75-3.75-3.75H6C3.582 3.25 2.25 4.582 2.25 7v3.75H3c.689 0 1.25.561 1.25 1.25S3.689 13.25 3 13.25h-.75V17c0 2.418 1.332 3.75 3.75 3.75h12c2.418 0 3.75-1.332 3.75-3.75v-3.75H21c-.689 0-1.25-.561-1.25-1.25s.561-1.25 1.25-1.25Zm-.75 3.896V17c0 1.577-.673 2.25-2.25 2.25h-2.25V16.5a.75.75 0 0 0-1.5 0v2.75H6c-1.577 0-2.25-.673-2.25-2.25v-2.354a2.754 2.754 0 0 0 2-2.646 2.754 2.754 0 0 0-2-2.646V7c0-1.577.673-2.25 2.25-2.25h8.25V7.5a.75.75 0 0 0 1.5 0V4.75H18c1.577 0 2.25.673 2.25 2.25v2.354a2.754 2.754 0 0 0-2 2.646c0 1.257.847 2.319 2 2.646Zm-4.5-3.896v2.5a.75.75 0 0 1-1.5 0v-2.5a.75.75 0 0 1 1.5 0Z"/></svg>

<svg width="24" height="24" viewBox="0 0 24 24" fill="none" xmlns="http://www.w3.org/2000/svg">
<path d="M21 10.75H21.75V7C21.75 4.582 20.418 3.25 18 3.25H6C3.582 3.25 2.25 4.582 2.25 7V10.75H3C3.689 10.75 4.25 11.311 4.25 12C4.25 12.689 3.689 13.25 3 13.25H2.25V17C2.25 19.418 3.582 20.75 6 20.75H18C20.418 20.75 21.75 19.418 21.75 17V13.25H21C20.311 13.25 19.75 12.689 19.75 12C19.75 11.311 20.311 10.75 21 10.75ZM20.25 14.646V17C20.25 18.577 19.577 19.25 18 19.25H15.75V16.5C15.75 16.086 15.414 15.75 15 15.75C14.586 15.75 14.25 16.086 14.25 16.5V19.25H6C4.423 19.25 3.75 18.577 3.75 17V14.646C4.903 14.319 5.75 13.257 5.75 12C5.75 10.743 4.903 9.681 3.75 9.354V7C3.75 5.423 4.423 4.75 6 4.75H14.25V7.5C14.25 7.914 14.586 8.25 15 8.25C15.414 8.25 15.75 7.914 15.75 7.5V4.75H18C19.577 4.75 20.25 5.423 20.25 7V9.354C19.097 9.681 18.25 10.743 18.25 12C18.25 13.257 19.097 14.319 20.25 14.646ZM15.75 10.75V13.25C15.75 13.664 15.414 14 15 14C14.586 14 14.25 13.664 14.25 13.25V10.75C14.25 10.336 14.586 10 15 10C15.414 10 15.75 10.336 15.75 10.75Z" fill="currentColor"/>
</svg>
